img/loading__100.svg

<svg width="81" height="110" viewBox="0 0 81 110" fill="none" xmlns="http://www.w3.org/2000/svg">
<mask id="mask0_291_646" style="mask-type:alpha" maskUnits="userSpaceOnUse" x="0" y="-6" width="81" height="116">
<rect width="81" height="116" transform="matrix(1 0 0 -1 0 110)" fill="#D9D9D9"/>
</mask>
<g mask="url(#mask0_291_646)">
<path d="M9.62818 64.116C10.0867 51.6575 4.12629 46.4917 1.68101 34.489C-2.9039 12.6105 9.62818 2.88675 16.8112 1.21548C26.898 -1.21546 32.7055 6.38122 42.6395 6.22929C50.5867 6.07735 59.1452 -0.759661 66.6338 2.12708C72.4414 4.25415 79.1659 10.9392 80.0829 17.7762C80.9999 24.6133 79.4716 31.4503 77.6376 37.9834C75.8036 44.5166 72.747 51.0497 72.2886 57.8867C71.8301 65.1796 73.2055 72.6243 72.2886 79.9171C70.1489 98.605 66.481 108.936 61.5904 108.329C55.9357 108.329 54.5603 101.644 53.9489 96.4779C52.4206 84.1713 50.5867 75.0552 47.3772 71.8646C45.2376 69.7376 42.0282 68.674 39.4301 69.7376C29.0376 73.9917 28.8848 94.6547 27.9678 99.6685C27.2037 103.619 25.981 109.24 22.4659 109.544C12.0735 109.848 9.32252 77.0304 9.62818 64.116Z" fill="white"/>
</g>
<path d="M22.3131 110C20.632 110 19.2565 109.392 17.881 108.025C10.3924 100.732 8.55839 74.7514 9.01688 64.116C9.32254 56.8232 7.33575 52.2652 5.19613 46.7956C3.66782 43.1492 2.13952 39.5028 1.06971 34.489C-1.5284 22.3343 1.37537 14.4337 4.27914 9.87569C7.94707 4.25414 12.9905 1.3674 16.6584 0.455803C22.4659 -0.911601 27.0508 0.911604 31.3301 2.73481C34.6924 4.10221 38.3603 5.62155 42.6395 5.46961C45.849 5.46961 49.2112 4.25415 52.4207 3.03868C57.3112 1.3674 62.3546 -0.4558 67.0924 1.3674C73.0527 3.49448 79.9301 10.3315 80.9999 17.6243C81.9169 24.6133 80.3886 31.6022 78.5546 38.1354C77.9433 40.2624 77.1791 42.3895 76.5678 44.5166C75.0395 48.9227 73.5112 53.3287 73.2056 57.8867C73.0527 61.2293 73.2056 64.5718 73.3584 67.9144C73.5112 71.8646 73.8169 75.9669 73.3584 80.0691C71.5244 95.8702 68.7735 105.29 64.9527 108.177C64.0357 108.936 62.9659 109.24 61.8961 109.088C55.1716 109.088 54.1018 100.58 53.6433 96.4779C52.4207 86.2983 50.7395 75.5111 47.2244 72.3204C45.0848 70.1934 42.181 69.4337 40.0414 70.3453C31.7886 73.8398 30.1074 88.8812 29.4961 96.174C29.3433 97.6934 29.1905 98.9088 29.0376 99.6685C28.1207 104.682 26.7452 109.848 22.7716 110.152C22.4659 110 22.4659 110 22.3131 110ZM20.632 1.51934C19.4093 1.51934 18.1867 1.67127 16.9641 1.97514C9.01688 3.79834 -1.83406 14.1298 2.44518 34.337C3.51499 39.047 4.89046 42.8453 6.41877 46.3398C8.55839 51.6575 10.698 56.6713 10.3924 64.268C10.0867 75.8149 12.0735 100.276 18.9508 106.961C20.0207 108.025 21.2433 108.633 22.6188 108.481C25.5225 108.329 26.7452 103.467 27.5093 99.3646C27.6622 98.605 27.815 97.3895 27.9678 95.8702C28.732 87.8177 30.4131 72.6243 39.4301 68.826C42.181 67.6105 45.6961 68.5221 48.1414 71.105C51.198 73.9917 53.032 81.2845 54.8659 96.174C55.6301 101.948 56.8527 107.417 61.7433 107.417C61.7433 107.417 61.7433 107.417 61.8961 107.417C62.6603 107.569 63.2716 107.265 63.8829 106.809C67.2452 104.227 69.9961 94.6547 71.6773 79.7652C72.1357 75.8149 71.9829 71.8646 71.6773 67.9144C71.5244 64.5718 71.3716 61.0774 71.5244 57.7348C71.8301 53.0249 73.3584 48.4669 74.8867 43.9088C75.6508 41.9337 76.2622 39.8066 76.8735 37.6796C78.5546 31.2983 80.0829 24.4613 79.3188 17.7762C78.4018 11.0912 71.9829 4.86188 66.481 2.73481C62.2018 1.21547 57.7697 2.73481 52.8791 4.40608C49.5169 5.62155 46.0018 6.83702 42.6395 6.83702C38.0546 6.98895 34.3867 5.46961 30.8716 3.95028C27.3565 2.73481 24.2999 1.51934 20.632 1.51934Z" fill="white"/>
</svg>

<svg xmlns="http://www.w3.org/2000/svg" width="81" height="110" fill="none"><mask id="a" width="81" height="116" x="0" y="-6" maskUnits="userSpaceOnUse" style="mask-type:alpha"><path fill="#D9D9D9" d="M0 110h81V-6H0z"/></mask><g mask="url(#a)"><path fill="#fff" d="M9.628 64.116c.459-12.459-5.502-17.624-7.947-29.627-4.585-21.878 7.947-31.602 15.13-33.274C26.898-1.215 32.706 6.381 42.64 6.23c7.948-.152 16.506-6.989 23.995-4.102 5.807 2.127 12.532 8.812 13.449 15.65.917 6.836-.611 13.673-2.445 20.206-1.834 6.534-4.891 13.067-5.35 19.904-.458 7.293.918 14.737 0 22.03-2.14 18.688-5.807 29.019-10.698 28.412-5.654 0-7.03-6.685-7.641-11.851-1.528-12.307-3.362-21.423-6.572-24.613-2.14-2.127-5.349-3.191-7.947-2.127-10.392 4.254-10.545 24.917-11.462 29.93-.764 3.951-1.987 9.572-5.502 9.876-10.393.304-13.143-32.514-12.838-45.428Z"/></g><path fill="#fff" d="M22.313 110c-1.681 0-3.056-.608-4.432-1.975-7.489-7.293-9.323-33.274-8.864-43.909.306-7.293-1.681-11.85-3.82-17.32-1.53-3.647-3.057-7.293-4.127-12.307-2.598-12.155.305-20.055 3.21-24.613 3.667-5.622 8.71-8.509 12.378-9.42C22.466-.912 27.051.912 31.33 2.735c3.362 1.367 7.03 2.887 11.31 2.735 3.209 0 6.571-1.216 9.78-2.431 4.891-1.672 9.935-3.495 14.672-1.672C73.052 3.494 79.93 10.332 81 17.624c.917 6.99-.611 13.978-2.445 20.511-.612 2.127-1.376 4.255-1.987 6.382-1.528 4.406-3.057 8.812-3.362 13.37-.153 3.342 0 6.685.152 10.027.153 3.95.459 8.053 0 12.155-1.834 15.801-4.585 25.221-8.405 28.108-.917.759-1.987 1.063-3.057.911-6.724 0-7.794-8.508-8.253-12.61-1.222-10.18-2.904-20.967-6.419-24.158-2.14-2.127-5.043-2.886-7.183-1.975-8.252 3.495-9.934 18.536-10.545 25.829-.153 1.52-.305 2.735-.458 3.494-.917 5.014-2.293 10.18-6.266 10.484-.306-.152-.306-.152-.459-.152ZM20.632 1.52c-1.223 0-2.445.151-3.668.455C9.017 3.798-1.834 14.13 2.445 34.337c1.07 4.71 2.445 8.508 3.974 12.003 2.14 5.317 4.279 10.331 3.973 17.928-.305 11.547 1.681 36.008 8.559 42.693 1.07 1.064 2.292 1.672 3.668 1.52 2.904-.152 4.126-5.014 4.89-9.116.153-.76.306-1.975.459-3.495.764-8.052 2.445-23.246 11.462-27.044 2.751-1.215 6.266-.304 8.711 2.279 3.057 2.887 4.891 10.18 6.725 25.069.764 5.774 1.987 11.243 6.877 11.243h.153c.764.152 1.376-.152 1.987-.608 3.362-2.582 6.113-12.154 7.794-27.044.459-3.95.306-7.9 0-11.85-.153-3.343-.305-6.838-.153-10.18.306-4.71 1.834-9.268 3.363-13.826.764-1.975 1.375-4.102 1.987-6.23 1.68-6.38 3.209-13.218 2.445-19.903-.917-6.685-7.336-12.914-12.838-15.041-4.28-1.52-8.711 0-13.602 1.671-3.362 1.216-6.877 2.431-10.24 2.431-4.584.152-8.252-1.367-11.767-2.887-3.515-1.215-6.572-2.43-10.24-2.43Z"/></svg>
